X:1
T:The Healing Waters
T:The Healing Waters
T:Leander Lycurgus Pickett
T:H. H. Heimar, 1902
T:Public Domain Courtesy of the Cyber Hymnal™
T:Public Domain Courtesy of the Cyber Hymnal™
C:Leander Lycurgus Pickett
Z:Public Domain
Z:Courtesy of the Cyber Hymnal™
%%score ( 1 2 ) ( 3 4 )
L:1/8
Q:1/4=90
M:4/4
K:D
V:1 treble 
V:2 treble 
V:3 bass 
V:4 bass 
V:1
 [FA]>[FA] | [FA]>[DF] [CE]>[CF] D2 D>[CE] | [DF]>[DF] [DE]>D !fermata![CA]2 [DA]>[DA] | %3
w: 1.~Oh, the|joy of sins for- giv’n, Oh, the|bliss the blood- washed know, Oh, the|
w: 2.~Now with|Je- sus cru- ci- fied, At His|feet I’m rest- ing low; Let me|
w: 3.~O, this|pre- cious, per- fect love! How it|keeps the heart a- glow, Stream- ing|
w: 4.~Oh, to|lean on Je- sus’ breast, While the|tem- pests come and go! Here is|
w: 5.~Cleansed from|ev- ery sin and stain, Whit- er|than the driv- en snow, Now I|
 [DA]>[DF] [CE]>[CF] D2 D>[CE] | [DF]<[DA] [CE][CF] !fermata!D2 ||"^Refrain" [FA]>[FA] | %6
w: peace a- kin to Heav’n, Where the|heal- ing wa- ters flow.||
w: ev- er- more a- bide Where the|heal- ing wa- ters flow.|Where the|
w: from the fount a- bove, Where the|heal- ing wa- ters flow.||
w: bless- èd peace and rest, Where the|heal- ing wa- ters flow.||
w: sing my sweet re- frain, Where the|heal- ing wa- ters flow.||
 [Fd]4- [Fd][Bd] [Ac]>[GB] x8 | [FA]6 [FA]>[FA] | A4- AA [GB]>[GB] | [FA]6 [FA]>[FA] | %10
w: ||||
w: heal- * ing wa- ters|flow, Where the|joys * ce- les- tial|glow, Oh, there’s|
w: ||||
w: ||||
w: ||||
 [Fd]4- [Fd][Bd] [Ac]>[GB] | [FA]6 [FA]>[FA] | [FA]4- [FA][DF] [CE]>[DF] | D4- !fermata![A,D]2 |] %14
w: ||||
w: peace * and rest and|love, Where the|heal- * ing wa- ters|flow! *|
w: ||||
w: ||||
w: ||||
V:2
 x2 | x4 D2 D3/2 x/ | x7/2 D/ x4 | x4 D2 D3/2 x/ | x4 D2 || x2 | x16 | x8 | (E>EE>F G2) x2 | x8 | %10
 x8 | x8 | x8 | D>A,B,>B, x2 |] %14
V:3
 [D,D]>[D,D] | [D,D]>[D,A,] [A,,G,]>[A,,A,] [D,F,]2 [D,F,]>[A,,A,] | %2
w: ~ ~|~ ~ ~ ~ ~ ~ ~|
 [D,A,]>[D,A,] [B,,^G,]>[B,,G,] !fermata![A,,A,]2 [D,F,]>[D,F,] | %3
w: ~ ~ ~ ~ ~ ~ ~|
 [D,F,]>[D,A,] [A,,G,]>[A,,A,] [D,F,]2 [D,F,]>[A,,A,] | %4
w: ~ ~ ~ ~ ~ ~ ~|
 [D,A,]<[D,F,] [A,,G,][A,,A,] !fermata![D,F,]2 || [D,D]>[D,D] | %6
w: ~ ~ ~ ~ ~|Where the|
 [D,A,]>[D,A,] [D,A,]>[D,A,] [D,A,]2 [D,D]>[D,D][D,D]>[D,D][D,D]>[D,D] [D,A,]2 [D,D]>[D,D] | %7
w: heal- ing wa- ters flow, Where the heal- ing wa- ters flow, Where the|
 [A,C]>[A,C] [A,C]>[A,D] [E,C]2 [A,,C]>[A,,C] | [D,D]>[D,D] [D,D]>[D,D] [D,A,]2 [D,D]>[D,D] | %9
w: joys ce- les- tial glow, Where the|joys ce- les- tial glow, Oh, there’s|
 [D,A,]>[D,A,] [D,A,]>[D,A,] [D,A,]2 [D,D]>[D,D] | [D,D]>[D,D] [D,D]>[D,D] [D,A,]2 [D,D]>[D,D] | %11
w: peace and rest and love, Oh, there’s|peace and rest and love, Where the|
 [D,D]>[D,D] [D,D]>[D,D] (DA,) [A,,A,]>[A,,A,] | F,>F, G,>G, !fermata![D,F,]2 x2 | x6 |] %14
w: heal- ing wa- ters flow, * Where the|healing~waters~flow! * * * *||
V:4
 x2 | x8 | x8 | x8 | x6 || x2 | x16 | x8 | x8 | x8 | x8 | x4 D,2 x2 | D,4- x4 | x6 |] %14

